!!!COM: Robert Schumann
!!!CNT: Deutscher
!!!TXO: Deutsche 
!!!OTL: Die Stille
!!!OPR: Liederkreis
!!!OPS: Opus 39
!!!ONM: No. 4
!!!LYR: Eichendorff
!!!ENC: Brian Bice
!!!YOR: Sa2mtliche Lieder, vol. 1, C.F. Peters
!!!ODT: 1840/
!!NB: Vocal melody and text only encoded.
**kern	**silbe
*clefG2	*
*k[f#]	*
*M6/8	*
=0	=0
4.r	.
4r	.
{8b	{Es
=1	=1
8b	weiss
8r	.
8a#	und
8.b	ra2t
16b	es
8a#	doch
=2	=2
4.b	kei-
4g}	-ner,}
8r	.
=3	=3
{8g	{wie
8g	mir
8g	so
8.dd	wohl
16dd	ist,
8dd	so
=4	=4
4b}	wohl!}
8r	.
4r	.
{8b	[Ach,
=5	=5
8.b	wu2sst'
16b	es
8a#	nur
8b	Ei-
8b	-ner,
8a#	nur
=6	=6
4.b	Ei-
4ee}	-ner,}
{8ee	{kein
=7	=7
8dd	Mensch
8b	es
8g#	sonst
(8a	wis-
8gn)	|
8e	-sen
=8	=8
8d}	soll!}
8r	.
8r	.
4r	.
{8g#	{So
=9	=9
8a	still
8a	ist's
8a	nicht
8a	drau-
8a	-ssen
8b	im
=10	=10
4cc#}	Schnee,}
8r	.
4r	.
8r	.
=11	=11
4r	.
{8f#	{so
8g	stumm
8g	und
8a	ver-
=12	=12
4b-	-schwie-
8b-}	-gen}
4r	.
{16fn	{sind
16fn	die
=13	=13
4g	Ster-
8g	-ne
8b-	nicht
8b-	in
8g	der
=14	=14
4fn}	Ho2h',}
8r	.
4r	.
{8fn	{als
=15	=15
8.g	mei-
16g	-ne
8g	Ge-
4a	-dan-
8a	-ken
=16	=16
[4.dd	sind,
4dd]}	|}
{8dd#	{Ich
=17	=17
4ee	wu2nscht',
8dd#	ich
(8ee	wa2r'
8cc)	|
8a	ein
=18	=18
4.g	Vo2g-
4f#}	-lein}
{8dd#	{und
=19	=19
4ee	zo2-
8dd#	-ge
8.ee	u2-
16cc	-ber
8a	das
=20	=20
4.f#}	Meer,}
4r	.
{8dn	{wohl
=21	=21
8.g	u2-
16g	-ber
8g	das
(8g	Meer
8a)	|
8b	und
=22	=22
4b	wei-
8a}	-ter,}
{4.ee	{bis
=23	=23
8.ee	dass
16dd	ich
8dd	im
4dd	Him-
8b	-mel
=24	=24
4.a}	wa2r!}
4r	.
{8a#	{Es
=25	=25
8b	weiss
8r	.
8a#	und
8.b	ra2t
16b	es
8a#	doch
=26	=26
4.b	kei-
4g}	-ner,}
8r	.
=27	=27
{8g	{wie
8g	mir
8g	so
8.dd	wohl
16dd	ist,
8dd	so
=28	=28
4b}	wohl!}
8r	.
4r	.
{8b	{Ach,
=29	=29
8.b	wu2sst
16b	es
8a#	nur
8b	Ei-
8b	-ner,
8a#	nur
=30	=30
(4.b	Ei-
eeq)	|
4ee}	-ner,}
{8ee	{kein
=31	=31
8dd	Mensch
8b	es
8g#	sonst
(8a	wis-
8gn)	|
8e	-sen
=32	=32
8d}	soll,}
8r	.
8r	.
{4.dd	{kein
=33	=33
8dd	Mensch
8g	es
8g	sonst
4b	wis-
8a	-sen
=34	=34
4.g}	soll!}
4r	.
8r	.
*-	*-
